dist/intermediate-svg/byn.svg

<?xml version="1.0" encoding="utf-8"?><svg width="12" height="12" fill="none" xmlns="http://www.w3.org/2000/svg" viewBox="0 0 12 12"><path d="M1 10V2H3.61538C4.48352 2 5.13553 2.17949 5.57143 2.53846 6.01099 2.89744 6.23077 3.42857 6.23077 4.13187 6.23077 4.50549 6.12454 4.837 5.91209 5.12637 5.69963 5.41209 5.41026 5.6337 5.04396 5.79121 5.47619 5.91209 5.81685 6.14286 6.06593 6.48352 6.31868 6.82051 6.44505 7.22344 6.44505 7.69231 6.44505 8.41026 6.21245 8.97436 5.74725 9.38462 5.28205 9.79487 4.62454 10 3.77473 10H1zM2.05495 6.25824V9.13736H3.7967C4.28755 9.13736 4.67399 9.01099 4.95604 8.75824 5.24176 8.50183 5.38462 8.15018 5.38462 7.7033 5.38462 6.73993 4.86081 6.25824 3.81319 6.25824H2.05495zM2.05495 5.41209H3.64835C4.10989 5.41209 4.47802 5.2967 4.75275 5.06593 5.03114 4.83516 5.17033 4.52198 5.17033 4.12637 5.17033 3.68681 5.04212 3.36813 4.78571 3.17033 4.5293 2.96886 4.13919 2.86813 3.61538 2.86813H2.05495V5.41209zM10.7253 4.96703C10.5714 4.94139 10.4048 4.92857 10.2253 4.92857 9.55861 4.92857 9.10623 5.21245 8.86813 5.78022V10H7.85165V4.05495H8.84066L8.85714 4.74176C9.19048 4.21062 9.663 3.94505 10.2747 3.94505 10.4725 3.94505 10.6227 3.9707 10.7253 4.02198V4.96703z" fill="#333"/></svg>

<?xml version="1.0" encoding="utf-8"?><svg width="12" height="12" fill="none" xmlns="http://www.w3.org/2000/svg" viewBox="0 0 12 12"><path d="M1 10V2h2.615c.869 0 1.52.18 1.956.538.44.36.66.89.66 1.594 0 .373-.106.705-.319.994a2.075 2.075 0 01-.868.665c.432.121.773.352 1.022.693.253.337.38.74.38 1.208 0 .718-.234 1.282-.699 1.693-.465.41-1.122.615-1.972.615H1zm1.055-3.742v2.88h1.742c.49 0 .877-.127 1.159-.38.286-.256.429-.608.429-1.055 0-.963-.524-1.445-1.572-1.445H2.055zm0-.846h1.593c.462 0 .83-.115 1.105-.346.278-.23.417-.544.417-.94 0-.44-.128-.758-.384-.956-.257-.201-.647-.302-1.17-.302H2.054v2.544zM10.725 4.967a3.047 3.047 0 00-.5-.038c-.666 0-1.119.283-1.357.851V10H7.852V4.055h.989l.016.687c.333-.531.806-.797 1.418-.797.197 0 .348.026.45.077v.945z" fill="#333"/></svg>
